assets/icons/dashboard/unicity_logo.svg

<svg fill="none" height="20" viewBox="0 0 123 20" width="123" xmlns="http://www.w3.org/2000/svg" xmlns:xlink="http://www.w3.org/1999/xlink"><linearGradient id="a" gradientUnits="userSpaceOnUse" x1=".31582" x2="124.041" y1="9.39164" y2="9.39164"><stop offset=".117549" stop-color="#5468ad"/><stop offset=".548659" stop-color="#448ed7"/><stop offset="1" stop-color="#30acea"/></linearGradient><path d="m20.0455 0-.0001 10.1729c.0078 5.4093-4.472 9.8047-10.0157 9.8271-5.54918-.015-10.03738124-4.4125-10.02969013-9.8271l-.0000085-10.1729h3.47529863v10.1729c-.0077 3.5418 2.92457 6.4212 6.5544 6.4361 3.6298-.0112 6.5652-2.8875 6.5613-6.4293v-10.1797zm6.7999 20v-9.558c-.0074-1.798.6795-3.52528 1.9093-4.80136 1.2298-1.27609 2.9017-1.99629 4.6475-2.00197 3.6272.01183 6.5606 3.04588 6.5567 6.78193v9.5579h3.4729v-10.73078c.0039-5.71149-4.4843-9.1741516-10.0296-9.1859916-5.5426.0197205-10.0235 4.6572616-10.0158 10.3659716v9.558zm37.6914-20c-5.5221.0379612-9.9764 4.50623-9.9686 10-.0078 5.4938 4.4465 9.962 9.9686 10h6.7359v-3.4507h-6.7359c-3.6228-.0152-6.5494-2.9452-6.5417-6.5493-.0038-3.6041 2.9259-6.53103 6.5486-6.54244h6.729v-3.45065965zm-14.4232 20v-20h-3.3409v20zm27.841 0v-20h-3.341v20zm39.9474-20v1.86464c.008 3.60547-2.922 6.53554-6.545 6.54696-3.622-.01522-6.549-2.94305-6.546-6.54696v-1.86464h-3.47v1.86464c.003 4.84313 3.49 8.98966 8.28 9.84806v8.2873h3.471v-8.2873c4.796-.8525 8.29-5.00057 8.294-9.84806v-1.86464zm-36.6065 0v3.44827h7.0864v16.55173h3.6453v-16.55173h7.0864v-3.44827zm38.0455 20v-1.964h.932v-.2582h-2.228v.2582h.932v1.9171zm1.234 0v-1.8834l.673 1.8676h.277l.681-1.836v1.836h.294v-2.1907h-.42l-.555 1.5288c-.059.1576-.101.2758-.118.3546l-.117-.3231-.555-1.576h-.462v2.1907z" fill="url(#a)"/></svg>

<svg width="123" height="20" viewBox="0 0 123 20" fill="none" xmlns="http://www.w3.org/2000/svg">
<path d="M20.0455 0L20.0454 10.1729C20.0532 15.5822 15.5734 19.9776 10.0297 20C4.48052 19.985 -0.00768124 15.5875 9.87001e-06 10.1729L1.37364e-06 0H3.4753V10.1729C3.4676 13.7147 6.39987 16.5941 10.0297 16.609C13.6595 16.5978 16.5949 13.7215 16.591 10.1797V0H20.0455ZM26.8454 20V10.442C26.838 8.644 27.5249 6.91672 28.7547 5.64064C29.9845 4.36455 31.6564 3.64435 33.4022 3.63867C37.0294 3.6505 39.9628 6.68455 39.9589 10.4206V19.9785H43.4318V9.24772C43.4357 3.53623 38.9475 0.0735684 33.4022 0.0617284C27.8596 0.0814489 23.3787 4.71899 23.3864 10.4277V19.9857L26.8454 20ZM64.5368 0C59.0147 0.0379612 54.5604 4.50623 54.5682 10C54.5604 15.4938 59.0147 19.962 64.5368 20H71.2727V16.5493H64.5368C60.914 16.5341 57.9874 13.6041 57.9951 10C57.9913 6.3959 60.921 3.46897 64.5437 3.45756H71.2727V0.00690035L64.5368 0ZM50.1136 20V0H46.7727V20H50.1136ZM77.9546 20V0H74.6136V20H77.9546ZM117.902 0V1.86464C117.91 5.47011 114.98 8.40018 111.357 8.4116C107.735 8.39638 104.808 5.46855 104.811 1.86464V0H101.341V1.86464C101.344 6.70777 104.831 10.8543 109.621 11.7127V20H113.092V11.7127C117.888 10.8602 121.382 6.71213 121.386 1.86464V0H117.902ZM81.2955 0V3.44827H88.3819V20H92.0272V3.44827H99.1136V0H81.2955ZM119.341 20V18.036H120.273V17.7778H118.045V18.036H118.977V19.9531L119.341 20ZM120.575 20V18.1166L121.248 19.9842H121.525L122.206 18.1482V19.9842H122.5V17.7935H122.08L121.525 19.3223C121.466 19.4799 121.424 19.5981 121.407 19.6769L121.29 19.3538L120.735 17.7778H120.273V19.9685L120.575 20Z" fill="url(#paint0_linear)"/>
<defs>
<linearGradient id="paint0_linear" x1="0.31582" y1="9.39164" x2="124.041" y2="9.39164" gradientUnits="userSpaceOnUse">
<stop offset="0.117549" stop-color="#5468AD"/>
<stop offset="0.548659" stop-color="#448ED7"/>
<stop offset="1" stop-color="#30ACEA"/>
</linearGradient>
</defs>
</svg>
